X:294
T: Der Fuerstenberger
N: A0337
O: Europa, Mitteleuropa, Deutschland
N: Ochsenkun, Tabulaturbuch 1558 Bl. 79.
R: Romanze, Ballade, Lied, Trinklied
M: 4/4
L: 1/8
K: A
e2 | E2E2A2B2 | c3de2
A2 | d2c2B2B2 | A4z2
e2 | E2E2A2B2 | c3de2
A2 | d2c2B2B2 | A4z2
e2 | d2d2c3d | e4e2
d2 | c2e2e2^d2 | e4z2
e2 | c2c2A2A2 | e4c2
d2 | B2A2A2G2 | A4z2
e2 | c2c2A2A2 | e4c2
d2 | B2A2A2G2 | A4z2

